X: 57
T: the Lilting Banshee
R: jig
Z: 2012 John Chambers <jc@trillian.mit.edu>
B: "100 Essential Irish Session Tunes" 1995 Dave Mallinson, ed.
M: 6/8
L: 1/8
K: Ador
G |\
"Am"EAA EAA | "G"BAB G2A | "Em"Bee edB | "D"def "G"gfg |\
"Am"eAA eAA | "G"BAB G2A | "Em"Bee edB | "G"dBA "Am"A2 :|
|: g |\
"Am"eaa age | "G"dBA G2A | "Em"Bee edB | "D"def "G"gfg |\
"Am"eaa age | "G"dBA G2A | "Em"Bee edB | "G"dBA "Am"A2 :|

%%sep 2 1 500
%%sep 1 1 500

